!!!COM: Monteverdi, Claudio
!!!CDT: 1567/05/15/-1643/11/29/
!!!OTL: Spernit Deus cor durum 
!!!OTL2: Ma tu, pi&ugrave; che mai dura
!!!ONM: No. 6
!!!SMS: Musica tolta da i madrigali di Claudio Monteverdi, e d'altri autori, e fatta spirituale
!!!PPR: A. Coppini, ed.
!!!PPP: Milan
!!!PDT: 1607
!!!URL: http://www.jpj.dk/coppini.htm
!!!AIN: contrafacta
**kern	**kern	**kern	**kern	**kern
!basso	!tenore	!alto	!quinto	!canto
*staff5	*staff4	*staff3	*staff2	*staff1
*Ivox	*Ivox	*Ivox	*Ivox	*Ivox
*clefF4	*clefGv2	*clefG2	*clefG2	*clefG2
*k[b-]	*k[b-]	*k[b-]	*k[b-]	*k[b-]
*M4/4	*M4/4	*M4/4	*M4/4	*M4/4
*MM120	*MM120	*MM120	*MM120	*MM120
=1-	=1-	=1-	=1-	=1-
2r	4r	2r	2r	1r
.	4d\	.	.	.
4r	[2d\	4r	4r	.
[4G\	.	[4g/	[4b-\	.
=2	=2	=2	=2	=2
4G\]	2d\]	4g/]	4b-\]	4r
4G\	.	4g/	4b-\	4dd\
[2F\	[2d\	8.d/L	4.a\	2dd\
.	.	16e/Jk	.	.
.	.	[4f/	.	.
.	.	.	8a\	.
=3	=3	=3	=3	=3
4F\]	4d\]	4f/]	2a/	2.dd\
4F\	4d\	4f/	.	.
2A\	2c\	2f/	2cc\	.
.	.	.	.	8dd\
.	.	.	.	8dd\
=4	=4	=4	=4	=4
1G	4.Bn\	1g	2cc\	1dd
.	8c\	.	.	.
.	2d\	.	2bn\	.
=5	=5	=5	=5	=5
2C/	2e\	2g/	2cc\	2cc\
4r	4r	4r	4r	4r
4F\	4c\	4f/	4a/	4cc\
=6	=6	=6	=6	=6
4F\	4.c\	4f/	4a/	4.cc\
4F\	.	4c/	4f/	.
.	8c\	.	.	8a/
4E-\	4G/	4e-/	4g/	4b-\
4E-\	4G/	4B-/	4g/	4g/
=7	=7	=7	=7	=7
4D\	4D/	4.d/	4.f#/	4.a/
4D\	4A/	.	.	.
.	.	8d/	8f#/	8a/
4GG/	4G/	4d/	4.g/	4.b-\
4GG/	4G/	4d/	.	.
.	.	.	8a/	8cc\
=8	=8	=8	=8	=8
2D\	2A/	2d/	2f#/	2a/
2D\	2A/	2d/	2f#/	4a/
.	.	.	.	[4dd\
=9	=9	=9	=9	=9
4G\	1r	1r	4b-\	1dd_
8F\	.	.	8a/	.
8E\	.	.	8g/	.
4D\	.	.	4f/	.
4C/	.	.	4e/	.
=10	=10	=10	=10	=10
[1BBn	1r	2.g/	[1d	4dd\]
.	.	.	.	8cc\
.	.	.	.	8bn\
.	.	.	.	[2a/
.	.	8f#/	.	.
.	.	8e/	.	.
=11	=11	=11	=11	=11
2BB/]	2D/	2.d/	2d/]	4a/]
.	.	.	.	4g#/
2AA/	2A/	.	2e/	[2a/
.	.	4c#/	.	.
=12	=12	=12	=12	=12
2D\	2D/	2d/	2.f/	4a/]
.	.	.	.	2a/
2GG/	4.G/	2Bn/	.	.
.	.	.	[4e/	[4g/
.	8F/	.	.	.
=13	=13	=13	=13	=13
1AA	4E/	4c/	4e/]	4g/]
.	4A/	4d/	2d/	4f/
.	2A/	4e/	.	2e/
.	.	4A/	4c#/	.
=14	=14	=14	=14	=14
1D	1F#	1A	1d	1d
=15	=15	=15	=15	=15
1r	4r	4r	1r	4r
.	4D/	4d/	.	4f/
.	4D/	4d/	.	4f/
.	[4D/	[4d/	.	[4f/
=16	=16	=16	=16	=16
1r	8D/]	8d/]	1r	8f/]
.	8D/	8d/	.	8f/
.	4d\	4d/	.	4f/
.	4c\	4e/	.	4g/
.	[4c\	[4e/	.	[4g/
=17	=17	=17	=17	=17
1r	8c\]	8e/]	1r	8g/]
.	8c\	8e/	.	8g/
.	4B-\	4d/	.	4g/
.	[2c\	[2e/	.	[2g/
=18	=18	=18	=18	=18
1r	4c\]	4e/]	1r	4g/]
.	4f\	4f/	.	4a/
.	8f\	8f/	.	4r
.	8f\	8f/	.	.
.	[4f\	[4a/	.	8a/
.	.	.	.	8a/
=19	=19	=19	=19	=19
1r	4f\]	4a/]	1r	2.cc\
.	8e\	8g/	.	.
.	8d\	8f/	.	.
.	[2c\	[2e/	.	.
.	.	.	.	8bn\
.	.	.	.	8a/
=20	=20	=20	=20	=20
1r	4c\]	4e/]	1r	4.g/
.	4c\	4e/	.	.
.	.	.	.	8g/
.	4c\	4e/	.	4g/
.	4e\	4g/	.	4g/
=21	=21	=21	=21	=21
1r	2.d\	2.f#/	1r	2.a/
.	4g\	4g/	.	4bn\
=22	=22	=22	=22	=22
1r	1r	4r	1r	4r
.	.	4.g/	.	4.bn\
.	.	8g/	.	8b\
.	.	4g/	.	4b\
=23	=23	=23	=23	=23
1r	1r	4g/	1r	4bn\
.	.	4a/	.	4cc\
.	.	[2f/	.	[2a/
=24	=24	=24	=24	=24
1r	4r	4f/]	1r	4a/]
.	4.c\	4.e/	.	4.g/
.	8c\	8e/	.	8g/
.	4d\	4d/	.	4f#/
=25	=25	=25	=25	=25
1r	4G/	4Bn/	1r	4d/
.	4G/	4B/	.	4d/
.	8G/	8B-/	.	8d/
.	8G/	8B-/	.	8d/
.	[4G/	[4B-/	.	[4d/
=26	=26	=26	=26	=26
1r	4G/]	4B-/]	1r	4d/]
.	8A/	8A/	.	8c#/
.	8A/	8A/	.	8c#/
.	4D/	4F#/	.	4A/
.	4D/	4F#/	.	4A/
=27	=27	=27	=27	=27
4r	4r	4r	4r	4r
4D\	4D/	4d/	4f#/	4a/
4D\	4A/	4d/	4f#/	4a/
[4D\	[4A/	[4d/	[4f#/	[4a/
=28	=28	=28	=28	=28
8D\]	8A/]	8d/]	8f#/]	8a/]
8D\	8A/	8d/	8f#/	8a/
4G\	4G/	4d/	4g/	4b-\
4F\	4c\	4f/	4a/	4cc\
[4F\	[4c\	[4f/	[4a/	[4cc\
=29	=29	=29	=29	=29
8F\]	8c\]	8f/]	8a/]	8cc\]
8F\	8c\	8f/	8a/	8cc\
4E-\	4e-\	4g/	4g/	4cc\
[2F\	[2c\	[2f/	[2a/	[2cc\
=30	=30	=30	=30	=30
4F\]	4c\]	4f/]	4a/]	4cc\]
4B-\	4B-\	4f/	4b-\	4dd\
8B-\	8B-\	8d/	4r	4r
8B-\	8B-\	8d/	.	.
[4B-\	[4d\	[4f/	8b-\	8dd\
.	.	.	8b-\	8dd\
=31	=31	=31	=31	=31
4B-\]	4d\]	4f/]	2.dd\	2.ff\
8A\	8c\	8f/	.	.
8G\	8B-\	8f/	.	.
[2F\	[2A/	[2f/	.	.
.	.	.	8cc\	8ee\
.	.	.	8b-\	8dd\
=32	=32	=32	=32	=32
4F\]	4A/]	4f/]	4.a/	4.cc\
4F\	4A/	4f/	.	.
.	.	.	8a/	8cc\
4F\	4A/	4f/	4a/	4cc\
4A\	4A/	4e/	4cc\	4cc\
=33	=33	=33	=33	=33
2.G\	2.d\	2.g/	2.bn\	2.dd\
4c\	4c\	4g/	4cc\	4ee\
=34	=34	=34	=34	=34
4r	4r	4r	4r	4r
4.c\	4.e\	4.g/	4.cc\	4.ee\
8c\	8e\	8g/	8cc\	8ee\
4c\	4e\	4g/	4cc\	4ee\
=35	=35	=35	=35	=35
4c\	4e\	4g/	4cc\	4ee\
4d\	4d\	4f/	4a/	4ff\
[2B-\	[2d\	2f/	[2b-\	[2dd\
=36	=36	=36	=36	=36
4B-\]	4d\]	4f/	4b-\]	4dd\]
4.F\	4.A/	4.f/	4.a/	4.cc\
8F\	8c\	8f/	8a/	8cc\
4G\	4G/	4d/	4g/	4bn\
=37	=37	=37	=37	=37
4C/	4G/	4c/	4e/	4g/
4C/	4G/	4c/	4e/	4g/
8C/	8G/	8c/	8e/	8g/
8C/	8G/	8c/	8e/	8g/
[4C/	[4G/	[4c/	[4e/	[4g/
=38	=38	=38	=38	=38
4C/]	4G/]	4c/]	4e/]	4g/]
8D\	8D/	8A/	8d/	8f#/
8D\	8D/	8A/	8d/	8f#/
4GG/	4D/	4G/	4Bn/	4d/
4GG/	4D/	4G/	4B/	4d/
=39	=39	=39	=39	=39
*k[]	*k[]	*k[]	*k[]	*k[]
1r	1G	1r	1r	1r
=40	=40	=40	=40	=40
1G	2G/	1d	1b	1g
.	2A/	.	.	.
=41	=41	=41	=41	=41
2G\	4.B\	2d/	2b\	2g/
.	8c\	.	.	.
2F#\	4d\	2d/	2a/	4r
.	8c#\L	.	.	4a/
.	8d\J	.	.	.
=42	=42	=42	=42	=42
2E\	2.e\	2d/	2g/	2.a/
2AA/	.	2c#/	2e/	.
.	4A/	.	.	4a/
=43	=43	=43	=43	=43
2D\	2A/	2d/	2f#/	2a/
2D\	2A/	2d/	2f#/	4r
.	.	.	.	4a/
=44	=44	=44	=44	=44
2C/	2c\	2e/	4e/	2.a/
.	.	.	4f#/	.
2E\	2c\	2c/	[2g/	.
.	.	.	.	4a/
=45	=45	=45	=45	=45
1D	1A	1d	2g/]	1a
.	.	.	2f#/	.
=46	=46	=46	=46	=46
1GG	2B\	1d	1g	1g
.	4r	.	.	.
.	8d\	.	.	.
.	8d\	.	.	.
=47	=47	=47	=47	=47
2G\	2.d\	4r	2b\	2r
.	.	8d/	.	.
.	.	8d/	.	.
2F#\	.	[2d/	2a/	4r
.	8A/	.	.	8dd\
.	8A/	.	.	8dd\
=48	=48	=48	=48	=48
2E\	2B\	4d/]	2g/	2.dd\
.	.	4B/	.	.
4E\	2E/	2c#/	4f#/	.
4E\	.	.	4e/	8a/
.	.	.	.	8g/
=49	=49	=49	=49	=49
2D\	2.A/	2d/	2f#/	2a/
4D\	.	4d/	4f#/	4a/
4D\	4F#/	4d/	4f#/	4b\
=50	=50	=50	=50	=50
2E\	2G/	2B/	2e/	2.g/
2AA/	4E/	2c/	2e/	.
.	[4A/	.	.	4e/
=51	=51	=51	=51	=51
2D\	4A/]	1A	2d/	2f#/
.	4A/	.	.	.
[2D\	2r	.	2d/	4f#/
.	.	.	.	4a/
=52	=52	=52	=52	=52
2D\]	4r	1d	2f#/	4a/
.	2F#/	.	.	2dd\
2BB/	.	.	2b\	.
.	[4B\	.	.	[4g#/
=53	=53	=53	=53	=53
2E\	4B\]	2B/	2e/	4g#/]
.	4G#/	.	.	2ee\
2C#/	4E/	2e/	2a/	.
.	4E/	.	.	[4a/
=54	=54	=54	=54	=54
2D\	2A/	2d/	2f#/	4a/]
.	.	.	.	2f#/
2BB/	[2B\	4d/	2dd\	.
.	.	4d/	.	[4dd\
=55	=55	=55	=55	=55
2E\	4B\]	2e/	2b\	4dd\]
.	4B\	.	.	2g#/
4C#/	[2c#\	4e/	2ee\	.
4C#/	.	4e/	.	[4ee\
=56	=56	=56	=56	=56
4.AA/	4c#\]	4.e/	4.cc#\	4ee\]
.	4c#\	.	.	2a/
8AA/	.	8e/	8cc#\	.
2D\	2F#/	[2d/	2a/	.
.	.	.	.	[4a/
=57	=57	=57	=57	=57
2E\	2G/	4d/]	2g/	4a/]
.	.	4c#/	.	4a/
2D\	2A/	2d/	2f#/	2a/
=58	=58	=58	=58	=58
2D\	2A/	2d/	2f#/	2a/
4D\	4A/	4d/	4f#/	4dd\
8D\	8A/	8d/	8f#/	8dd\
8E\	8A/	8d/	8g/	8dd\
=59	=59	=59	=59	=59
4F#\	4A/	4d/	4a/	4dd\
4G\	4e\	4B/	4b\	4ee\
2A\	2A/	2e/	2cc#\	2ee\
=60	=60	=60	=60	=60
2D\	4d\	2f#/	2dd\	2dd\
.	4d\	.	.	.
4r	2B\	2r	4r	4r
4G\	.	.	4g/	4b\
=61	=61	=61	=61	=61
2E\	1c	4r	2g/	1ee
.	.	4e/	.	.
2D\	.	2A/	2f/	.
=62	=62	=62	=62	=62
1E	2B\	4r	1e	4g#/
.	.	4e/	.	2a/
.	2B\	4B/	.	.
.	.	4B/	.	4g#/
=63	=63	=63	=63	=63
1AA	4A/	4c#/	2e/	1a
.	8A/	8c#/	.	.
.	8B\	8d/	.	.
.	4c#\	4e/	2r	.
.	4d\	4f/	.	.
=64	=64	=64	=64	=64
2AA/	2c#\	2e/	4r	1r
.	.	.	4a/	.
2r	4d\	4d/	2f#/	.
.	4d\	4d/	.	.
=65	=65	=65	=65	=65
1r	2B\	2d#/	1g	1r
.	2A/	2e/	.	.
=66	=66	=66	=66	=66
1r	1B	1d#	1f#	1r
=67	=67	=67	=67	=67
2r	[1E	2e/	1e	4g#/
.	.	.	.	8g#/
.	.	.	.	8a/
4E\	.	4G#/	.	4b\
8E\	.	8G#/	.	4cc\
8F#\	.	8A/	.	.
=68	=68	=68	=68	=68
4G#\	2E/]	4B/	1r	4b\
4A\	.	4c/	.	4e/
2G#\	4r	2B/	.	2r
.	4e\	.	.	.
=69	=69	=69	=69	=69
2A\	1c	1A	2r	4r
.	.	.	.	4cc\
4r	.	.	4r	[2a/
4c\	.	.	4a/	.
=70	=70	=70	=70	=70
2A\	2c\	1r	2.f/	1a]
2G\	2B-\	.	.	.
.	.	.	4e/	.
=71	=71	=71	=71	=71
1A	1A	1r	1e	4c#/
.	.	.	.	2d/
.	.	.	.	4c#/
=72	=72	=72	=72	=72
2A\	2.D/	4r	2d/	2d/
.	.	4f/	.	.
4r	.	[2d/	4r	4r
4F\	4d\	.	4f/	4a/
=73	=73	=73	=73	=73
2D\	2.B-\	2d/]	2f/	1dd
2C#/	.	2r	2e/	.
.	4A/	.	.	.
=74	=74	=74	=74	=74
1D	1A	4r	1d	4f#/
.	.	4d/	.	2g/
.	.	2A/	.	.
.	.	.	.	4f#/
=75	=75	=75	=75	=75
1GG;	1G;	1B;	1d;	1g;
==	==	==	==	==
*-	*-	*-	*-	*-
!!!ENC: Craig Stuart Sapp
!!!END: 2004/12/10/
